X:4935
T:Paddy Fahys reel (number 2)
O:england
M:4/4
L:1/8
C:Paddy Fahy
K:G
BG~G2 BdcA | BGBd cA=FA | BG~G2 Bcdf | fgaf gedc |
BG~G2 BdcA | BGBd cA=FA | BG~G2 Bcdg|1 fgaf g2dc:||2 fgaf gfga |:
bgaf dg~g2|=fdcB ABca | bgaf gfdc | dggf gfga | bgaf dg~g2 |
=fdcA ^FGAc | BG~G2 Bcdg |1 fgaf gfga :|2 fgaf g2dc ||


